icon-themes/elementary_svg/cmd/sc_heading1parastyle.svg

<svg viewBox="0 0 16 16" xmlns="http://www.w3.org/2000/svg"><path d="m11.932915 14.220017h-2.6878297v-5.4887388h-5.0364185v5.4887388h-2.696528v-12.7171735h2.696528v4.9842275h5.0364185v-4.9842275h2.6878297z" fill="#8c8c8c" stroke="#565656" stroke-linejoin="round" stroke-width=".962" transform="scale(.97940746 1.0210255)"/><path d="m15.164014 14.171245h-1.903934v-5.2127139l.01849-.8564624.03081-.9365631q-.474444.4744431-.659292.6223215l-1.035148.831816-.918079-1.1460576 2.902114-2.3105999h1.565046v9.0082594z" fill="#fcaf3e" stroke="#ce5c00" stroke-linejoin="round" stroke-width=".682" transform="scale(.96671158 1.0344347)"/></svg>

<svg xmlns="http://www.w3.org/2000/svg" xmlns:xlink="http://www.w3.org/1999/xlink" viewBox="0 0 16 16"><defs><linearGradient id="a"><stop offset="0" stop-color="#737373"/><stop offset=".262" stop-color="#636363"/><stop offset=".705" stop-color="#4b4b4b"/><stop offset="1" stop-color="#3f3f3f"/></linearGradient><linearGradient xlink:href="#a" id="b" x1="6.126" x2="7.147" y2="15.671" gradientUnits="userSpaceOnUse"/></defs><path d="M11.933 14.22H9.245V8.73H4.21v5.49H1.51V1.503H4.21v4.984h5.035V1.503h2.688z" fill="url(#b)" stroke="#000" stroke-linejoin="round" stroke-width=".962" transform="scale(.9794 1.02103)" stroke-opacity=".49"/><path d="M12 4.357L9.447 6.53a1.433 1.534 0 0 0-.224 2.157l.888 1.186a1.433 1.534 0 0 0 1.275.566v4.22A1.433 1.534 0 0 0 12 15.916V4.356z" fill="#fff" fill-opacity=".728"/><path d="M15.164 14.17H13.26V8.96l.02-.858.03-.936q-.475.474-.66.622l-1.035.832-.918-1.146 2.902-2.31h1.564v9.007z" fill="#ffc27d" stroke="#f37329" stroke-linejoin="round" stroke-width=".682" transform="scale(.9667 1.03443)"/></svg>
